X:258
T:60th Summer School, The
R:Strathspey
C:Muriel Johnstone
S:8 X 32 STRATHSPEY 1,2,3,4, 2,3,4,1
M:4/4
L:1/8
K:G
D2 |\
"G" G2 G>F "Em" G2 (3 GAB | "Am" c>BA>G "D7" F<A A>d | "G"   G2 G>F  "Em" G2 (3 GAB | "Am" c>B c<e "D7" d2 E>F | !
"G" G2 G>F "Em" G2 (3 GAB | "Am" c>BA>G "D"  F<A G>E | "G/B" D>E G<B "C"c>B c<e    | "D7" d<D E>F "G"  G2     || !
za |\
"Em" g>fg>e    "Bm" d<B B>d   | "Am" c>B"D7"c>A "G" B<d d>a | "Em" g>f"C"g>e "G"  d<G "G7" (3GAB | "Am" c>B A>G "D7" d2-d>a | !
"Em" g>f"C"g>e "G"  d<G (3GAB | "Am" c>BA>G     "C" E<G G>E | "G"  D>E G<B   "Am" c>B c<e  | "D7" d<D B>A "G" G2     |]
